X:2
T:Giant Steps
C:John Coltrane
L:1/4
M:C
I:linebreak $
K:B
"B" f2"Am" =d2 ||[K:G]"G" B2"Fm" G2 ||[K:Eb]"Eb" B4 ||[K:G]"Am" B2"D7" A2 |$"G" d2"Fm" _B2 ||
[K:Eb]"Eb" G2"Dbm" E2 ||[K:B]"B" F4 ||[K:Eb]"Fm" G2"Bb7" F2 |$"Eb" B4 ||[K:G]"Am" B2"D7" A2 |
"G" d4 ||[K:B]"C#m" d2"F#7" c2 |$"B" f4 ||[K:Eb]"Fm" g2"Bb7" f2 |"Eb" b4 ||1
[K:B]"C#m" f2"F#7" z2 :|2"Eb" z4 |]]

